images/themes/sigpacgo/nodpi/ic_qr_nfc_code_black_24dp.svg

<?xml version="1.0" encoding="UTF-8" standalone="no"?>
<svg
   width="24"
   height="24"
   version="1.1"
   id="svg11"
   sodipodi:docname="ic_qr_nfc_code_black_24dp.svg"
   inkscape:version="1.4 (e7c3feb100, 2024-10-09)"
   xmlns:inkscape="http://www.inkscape.org/namespaces/inkscape"
   xmlns:sodipodi="http://sodipodi.sourceforge.net/DTD/sodipodi-0.dtd"
   xmlns="http://www.w3.org/2000/svg"
   xmlns:svg="http://www.w3.org/2000/svg">
  <defs
     id="defs11" />
  <sodipodi:namedview
     id="namedview11"
     pagecolor="#ffffff"
     bordercolor="#000000"
     borderopacity="0.25"
     inkscape:showpageshadow="2"
     inkscape:pageopacity="0.0"
     inkscape:pagecheckerboard="0"
     inkscape:deskcolor="#d1d1d1"
     inkscape:zoom="48.416667"
     inkscape:cx="12"
     inkscape:cy="12"
     inkscape:window-width="2560"
     inkscape:window-height="1368"
     inkscape:window-x="0"
     inkscape:window-y="0"
     inkscape:window-maximized="1"
     inkscape:current-layer="svg11" />
  <path
     d="m10 10v2.9434a2.5 2.5 0 0 0 0.5 0.056641 2.5 2.5 0 0 0 2.5-2.5 2.5 2.5 0 0 0-0.050781-0.5h-2.9492z"
     style="paint-order:stroke markers fill"
     id="path1" />
  <path
     d="m10 9v-4h2v2h2v2z"
     id="path2" />
  <path
     d="m9 12h-2v-2h2z"
     id="path3" />
  <g
     fill="#80cc28"
     id="g6"
     style="fill:#ff6600">
    <path
       d="m15 3v6h6v-6h-6zm1.5 1.5h3v3h-3v-3z"
       id="path4"
       style="fill:#ff6600" />
    <path
       d="m3 15v6h6v-6h-6zm1.5 1.5h3v3h-3v-3z"
       id="path5"
       style="fill:#ff6600" />
    <path
       d="m3 3v6h6v-6h-6zm1.5 1.5h3v3h-3v-3z"
       id="path6"
       style="fill:#ff6600" />
  </g>
  <path
     d="m12 5v-2h2v2z"
     id="path7" />
  <path
     d="m3 12v-2h2v2z"
     id="path8" />
  <path
     d="m5 14v-2h2v2z"
     id="path9" />
  <path
     d="m11 20c6 0 9-3 9-9"
     fill="none"
     stroke="#000"
     stroke-linecap="round"
     stroke-width="2"
     id="path10" />
  <path
     d="m11 16c3 0.03497 5.0219-2 5-5"
     fill="none"
     stroke="#000"
     stroke-linecap="round"
     stroke-width="2"
     id="path11" />
</svg>

<svg xmlns="http://www.w3.org/2000/svg" xmlns:xlink="http://www.w3.org/1999/xlink" width="24" height="24" viewBox="0 0 24 24">
<path fill-rule="nonzero" fill="rgb(0%, 0%, 0%)" fill-opacity="1" d="M 10 10 L 10 12.945312 C 10.164062 12.980469 10.332031 12.996094 10.5 13 C 11.878906 13 13 11.878906 13 10.5 C 13 10.332031 12.984375 10.164062 12.949219 10 Z M 10 10 "/>
<path fill-rule="nonzero" fill="rgb(0%, 0%, 0%)" fill-opacity="1" d="M 10 9 L 10 5 L 12 5 L 12 7 L 14 7 L 14 9 Z M 10 9 "/>
<path fill-rule="nonzero" fill="rgb(0%, 0%, 0%)" fill-opacity="1" d="M 9 12 L 7 12 L 7 10 L 9 10 Z M 9 12 "/>
<path fill-rule="nonzero" fill="rgb(100%, 40%, 0%)" fill-opacity="1" d="M 15 3 L 15 9 L 21 9 L 21 3 Z M 16.5 4.5 L 19.5 4.5 L 19.5 7.5 L 16.5 7.5 Z M 16.5 4.5 "/>
<path fill-rule="nonzero" fill="rgb(100%, 40%, 0%)" fill-opacity="1" d="M 3 15 L 3 21 L 9 21 L 9 15 Z M 4.5 16.5 L 7.5 16.5 L 7.5 19.5 L 4.5 19.5 Z M 4.5 16.5 "/>
<path fill-rule="nonzero" fill="rgb(100%, 40%, 0%)" fill-opacity="1" d="M 3 3 L 3 9 L 9 9 L 9 3 Z M 4.5 4.5 L 7.5 4.5 L 7.5 7.5 L 4.5 7.5 Z M 4.5 4.5 "/>
<path fill-rule="nonzero" fill="rgb(0%, 0%, 0%)" fill-opacity="1" d="M 12 5 L 12 3 L 14 3 L 14 5 Z M 12 5 "/>
<path fill-rule="nonzero" fill="rgb(0%, 0%, 0%)" fill-opacity="1" d="M 3 12 L 3 10 L 5 10 L 5 12 Z M 3 12 "/>
<path fill-rule="nonzero" fill="rgb(0%, 0%, 0%)" fill-opacity="1" d="M 5 14 L 5 12 L 7 12 L 7 14 Z M 5 14 "/>
<path fill="none" stroke-width="2" stroke-linecap="round" stroke-linejoin="miter" stroke="rgb(0%, 0%, 0%)" stroke-opacity="1" stroke-miterlimit="4" d="M 11 20 C 17 20 20 17 20 11 "/>
<path fill="none" stroke-width="2" stroke-linecap="round" stroke-linejoin="miter" stroke="rgb(0%, 0%, 0%)" stroke-opacity="1" stroke-miterlimit="4" d="M 11 16 C 14 16.035156 16.023438 14 16 11 "/>
</svg>
